X: 14432
T: Galway Roundabouts
R: reel
M: 4/4
K: Adorian
|:Aeed cBAG|Aeed ef g2|Aeed cBdc|BGBe dB G2:|
|:aeef gedB|Aaaf g2 e2|aeef gedB|dBGd BGdB:|

